X:47
T:Ingonish
M:6/8
L:1/8
R:jig
K:Edor
Bee efg | fef dBA | Bee efg | fdc d3 |
Bee efg | fef dBA | BdB AFD | EFE E3 ::
BEE BEE | FEF DFA | BEE BEE | ABc dcd |
BEE BEE | FEF D2A | BdB AFD | EFE E3 :|
